src/pos-icons/image-frame.svg

<svg height="24" viewBox="0 0 24 24" width="24" xmlns="http://www.w3.org/2000/svg"><path d="m10 14.29-3.5 4.71h10.96l-2.71-3.54-1.97 2.34zm-5 6.71v-14h13.96v14zm7-18.6 2.61 2.63h-5.24zm-7 2.63c-.5 0-1 .19-1.39.58-.41.39-.61.85-.61 1.39v14c0 .5.2 1 .61 1.39.39.41.89.61 1.39.61h13.96c.54 0 1-.2 1.41-.61.4-.39.63-.89.63-1.39v-14c0-.54-.23-1-.63-1.39-.41-.39-.87-.58-1.41-.58h-2.96l-4-4.03-4.04 4.03z"/></svg>

<?xml version="1.0" encoding="UTF-8"?><!DOCTYPE svg PUBLIC "-//W3C//DTD SVG 1.1//EN" "http://www.w3.org/Graphics/SVG/1.1/DTD/svg11.dtd"><svg xmlns="http://www.w3.org/2000/svg" xmlns:xlink="http://www.w3.org/1999/xlink" version="1.1" id="mdi-image-frame" width="24" height="24" viewBox="0 0 24 24"><path d="M10,14.29L6.5,19H17.46L14.75,15.46L12.78,17.8L10,14.29M5,21V7H18.96V21H5M12,2.4L14.61,5.03H9.37L12,2.4M5,5.03C4.5,5.03 4,5.22 3.61,5.61C3.2,6 3,6.46 3,7V21C3,21.5 3.2,22 3.61,22.39C4,22.8 4.5,23 5,23H18.96C19.5,23 19.96,22.8 20.37,22.39C20.77,22 21,21.5 21,21V7C21,6.46 20.77,6 20.37,5.61C19.96,5.22 19.5,5.03 18.96,5.03H16L12,1L7.96,5.03H5Z" /></svg>
